images/item-product-item1.svg

<svg width="64" height="64" viewBox="0 0 64 64" fill="none" xmlns="http://www.w3.org/2000/svg">
<circle cx="32" cy="32" r="32" fill="#61AA45"/>
<g clip-path="url(#clip0_57_577)">
<path opacity="0.934" fill-rule="evenodd" clip-rule="evenodd" d="M34.5391 11.9609C35.4766 11.9609 36.4141 11.9609 37.3516 11.9609C42.4757 12.8123 45.8742 15.7029 47.5469 20.6328C48.844 26.4584 47.0341 31.0287 42.1172 34.3438C38.1329 36.5191 34.1224 36.5712 30.086 34.5C25.8225 31.8988 23.7782 28.0837 23.9532 23.0547C24.4991 18.0928 27.0642 14.6422 31.6485 12.7031C32.6002 12.3676 33.5637 12.1202 34.5391 11.9609ZM34.7735 13.3672C36.7007 13.1979 38.5496 13.4974 40.3203 14.2656C40.8682 14.4902 41.3631 14.7897 41.8047 15.1641C36.936 20.0719 32.0532 24.9677 27.1563 29.8516C24.8039 26.0745 24.7258 22.2463 26.9219 18.3672C28.7853 15.5273 31.4025 13.8607 34.7735 13.3672ZM42.9766 16.0234C43.3306 16.2849 43.604 16.5974 43.7969 16.9609C38.8229 21.9349 33.849 26.9088 28.875 31.8828C28.6146 31.6224 28.3542 31.362 28.0938 31.1016C28.0417 31.0495 28.0417 30.9974 28.0938 30.9453C33.0704 25.9816 38.0314 21.0077 42.9766 16.0234ZM44.6953 18.0547C45.7595 19.5142 46.3715 21.1548 46.5313 22.9766C46.7628 27.4228 45.005 30.8213 41.2578 33.1719C37.4976 35.1641 33.7997 35.06 30.1641 32.8594C30.0898 32.8033 30.0768 32.7382 30.125 32.6641C34.9975 27.8046 39.8543 22.9348 44.6953 18.0547Z" fill="white"/>
<path opacity="0.933" fill-rule="evenodd" clip-rule="evenodd" d="M11.9609 33.3672C11.9609 32.7422 11.9609 32.1172 11.9609 31.4922C12.6526 28.7154 14.4365 27.231 17.3125 27.0391C18.546 27.0596 19.6528 27.4372 20.6328 28.1719C23.4584 30.9974 26.2838 33.8229 29.1094 36.6484C30.6316 38.9068 30.6055 41.1463 29.0312 43.3672C27.0025 45.4697 24.6718 45.8734 22.0391 44.5781C21.6783 44.3477 21.3397 44.0872 21.0234 43.7969C18.4844 41.2578 15.9453 38.7188 13.4062 36.1797C12.6946 35.3552 12.2128 34.4177 11.9609 33.3672ZM16.8828 28.4453C17.9164 28.4041 18.8539 28.6775 19.6953 29.2656C20.9073 30.4646 22.1052 31.6755 23.2891 32.8984C23.0298 33.1967 22.7564 33.4832 22.4688 33.7578C21.987 33.276 21.5052 32.7943 21.0234 32.3125C20.5255 32.0694 20.1479 32.1866 19.8906 32.6641C19.845 32.8795 19.8711 33.0877 19.9688 33.2891C20.4647 33.772 20.9465 34.2667 21.4141 34.7734C20.2162 36.0234 18.9922 37.2474 17.7422 38.4453C16.491 37.2593 15.2801 36.0353 14.1094 34.7734C13.1495 33.2515 13.1235 31.7151 14.0312 30.1641C14.7505 29.1993 15.701 28.6264 16.8828 28.4453ZM24.3047 33.9141C25.5259 35.0962 26.7369 36.2941 27.9375 37.5078C29.0312 39.1484 29.0312 40.7891 27.9375 42.4297C26.4345 44.027 24.7027 44.3266 22.7422 43.3281C21.3666 42.109 20.0385 40.833 18.7578 39.5C19.9948 38.263 21.2318 37.026 22.4688 35.7891C23.1068 36.4271 23.7448 37.0651 24.3828 37.7031C25.0015 37.9948 25.3921 37.8124 25.5547 37.1562C25.5316 37.0087 25.4925 36.8655 25.4375 36.7266C24.7853 36.0874 24.1473 35.4364 23.5234 34.7734C23.7855 34.4854 24.046 34.199 24.3047 33.9141Z" fill="white"/>
<path opacity="0.896" fill-rule="evenodd" clip-rule="evenodd" d="M17.8984 29.8517C18.1702 29.827 18.4306 29.866 18.6797 29.9688C18.875 30.1642 19.0703 30.3595 19.2656 30.5548C19.5327 31.4595 19.2071 31.8111 18.2891 31.6095C17.9205 31.3329 17.6601 30.9813 17.5078 30.5548C17.5407 30.2626 17.6709 30.0282 17.8984 29.8517Z" fill="white"/>
<path opacity="0.931" fill-rule="evenodd" clip-rule="evenodd" d="M51.961 38.1328C51.961 38.7578 51.961 39.3828 51.961 40.0078C51.7709 40.9612 51.3673 41.8206 50.75 42.586C48.0287 45.3073 45.3073 48.0287 42.586 50.75C41.8206 51.3673 40.9612 51.7709 40.0078 51.961C39.3828 51.961 38.7578 51.961 38.1328 51.961C34.9523 51.0565 33.507 48.9471 33.7969 45.6328C33.9717 44.7365 34.3363 43.9292 34.8906 43.211C37.6381 40.4635 40.3854 37.7162 43.1328 34.9688C45.3603 33.3308 47.626 33.2787 49.9297 34.8125C50.997 35.6847 51.6741 36.7914 51.961 38.1328ZM46.5703 35.086C49.0145 35.3296 50.3426 36.6707 50.5547 39.1094C50.5699 39.9232 50.3485 40.6653 49.8906 41.336C48.6939 42.6239 47.4569 43.8739 46.1797 45.086C44.9297 43.8881 43.7057 42.6641 42.5078 41.4141C42.9494 40.9335 43.4051 40.4647 43.875 40.0078C44.1557 39.2742 43.9084 38.8965 43.1328 38.875C42.5262 39.3251 41.9663 39.8329 41.4531 40.3985C41.1655 40.1239 40.892 39.8374 40.6328 39.5391C41.7906 38.3423 42.9624 37.1574 44.1485 35.9844C44.8802 35.4586 45.6875 35.1592 46.5703 35.086ZM39.461 40.6328C39.5431 40.6212 39.6213 40.6342 39.6953 40.6719C39.9154 40.9311 40.1498 41.1785 40.3985 41.4141C39.8006 42.051 39.1887 42.676 38.5625 43.2891C38.1993 44.2014 38.4988 44.5791 39.461 44.4219C40.1023 43.7545 40.7663 43.1164 41.4531 42.5078C42.6718 43.7265 43.8827 44.9375 45.086 46.1407C43.889 47.4418 42.639 48.6918 41.336 49.8907C39.2849 51.0289 37.475 50.7294 35.9063 48.9922C34.8944 47.3597 34.9204 45.7451 35.9844 44.1485C37.159 42.9869 38.3179 41.815 39.461 40.6328Z" fill="white"/>
<path opacity="0.892" fill-rule="evenodd" clip-rule="evenodd" d="M45.4765 36.4922C46.245 36.4919 46.5184 36.8564 46.2968 37.5859C46.0755 37.8073 45.8541 38.0287 45.6328 38.25C44.8049 38.516 44.4533 38.2166 44.5781 37.3516C44.8179 36.9943 45.1175 36.7079 45.4765 36.4922Z" fill="white"/>
</g>
<defs>
<clipPath id="clip0_57_577">
<rect width="40" height="40" fill="white" transform="translate(12 12)"/>
</clipPath>
</defs>
</svg>

<svg xmlns="http://www.w3.org/2000/svg" width="64" height="64" fill="none"><circle cx="32" cy="32" r="32" fill="#61AA45"/><g fill="#fff" fill-rule="evenodd" clip-path="url(#a)" clip-rule="evenodd"><path d="M34.54 11.96h2.812c5.124.852 8.522 3.743 10.195 8.673 1.297 5.825-.513 10.396-5.43 13.71-3.984 2.176-7.995 2.228-12.031.157-4.263-2.601-6.308-6.416-6.133-11.445.546-4.962 3.111-8.413 7.695-10.352a16.848 16.848 0 0 1 2.891-.742Zm.233 1.407c1.928-.17 3.777.13 5.547.899a5.512 5.512 0 0 1 1.485.898 3892.952 3892.952 0 0 1-14.649 14.688c-2.352-3.777-2.43-7.606-.234-11.485 1.863-2.84 4.48-4.506 7.851-5Zm8.204 2.656c.354.262.627.574.82.938L28.875 31.883l-.781-.781c-.052-.053-.052-.105 0-.157a4025.44 4025.44 0 0 0 14.883-14.922Zm1.718 2.032a9.627 9.627 0 0 1 1.836 4.922c.232 4.446-1.526 7.844-5.273 10.195-3.76 1.992-7.458 1.888-11.094-.313-.074-.056-.087-.12-.039-.195 4.873-4.86 9.73-9.73 14.57-14.61Z" opacity=".934"/><path d="M11.96 33.367v-1.875c.693-2.777 2.476-4.261 5.352-4.453 1.234.02 2.34.398 3.32 1.133l8.477 8.476c1.523 2.259 1.496 4.498-.078 6.72-2.028 2.102-4.36 2.505-6.992 1.21-.36-.23-.7-.49-1.016-.781l-7.617-7.617a6.604 6.604 0 0 1-1.445-2.813Zm4.923-4.922a4.472 4.472 0 0 1 2.812.82 236.63 236.63 0 0 1 3.594 3.633c-.26.299-.533.585-.82.86l-1.446-1.446c-.497-.243-.875-.125-1.132.352a.946.946 0 0 0 .078.625 38.8 38.8 0 0 1 1.445 1.484 122.008 122.008 0 0 1-3.672 3.672 80.426 80.426 0 0 1-3.633-3.672c-.96-1.522-.986-3.058-.078-4.609.72-.965 1.67-1.538 2.852-1.719Zm7.422 5.47a235.551 235.551 0 0 1 3.633 3.593c1.093 1.64 1.093 3.281 0 4.922-1.503 1.597-3.235 1.897-5.196.898a68.843 68.843 0 0 1-3.984-3.828l3.71-3.71 1.915 1.913c.619.292 1.01.11 1.172-.547a2.007 2.007 0 0 0-.117-.43 67.62 67.62 0 0 1-1.915-1.953l.782-.859Z" opacity=".933"/><path d="M17.898 29.852c.272-.025.533.014.782.117l.586.586c.267.904-.059 1.256-.977 1.055a2.233 2.233 0 0 1-.781-1.055.995.995 0 0 1 .39-.703Z" opacity=".896"/><path d="M51.961 38.133v1.875a5.884 5.884 0 0 1-1.211 2.578l-8.164 8.164a5.884 5.884 0 0 1-2.578 1.211h-1.875c-3.18-.904-4.626-3.014-4.336-6.328a5.694 5.694 0 0 1 1.094-2.422l8.242-8.242c2.227-1.638 4.493-1.69 6.797-.157a5.717 5.717 0 0 1 2.031 3.32Zm-5.39-3.047c2.444.244 3.772 1.585 3.984 4.023a3.734 3.734 0 0 1-.664 2.227 83.954 83.954 0 0 1-3.711 3.75 122.008 122.008 0 0 1-3.672-3.672c.441-.48.897-.95 1.367-1.406.28-.734.033-1.111-.742-1.133-.607.45-1.167.958-1.68 1.523a12.755 12.755 0 0 1-.82-.859 226.069 226.069 0 0 1 3.515-3.555 4.753 4.753 0 0 1 2.422-.898Zm-7.11 5.547a.386.386 0 0 1 .234.039c.22.26.455.507.703.742a62.264 62.264 0 0 1-1.836 1.875c-.363.912-.063 1.29.899 1.133a34.428 34.428 0 0 1 1.992-1.914l3.633 3.633a63.708 63.708 0 0 1-3.75 3.75c-2.051 1.138-3.861.838-5.43-.899-1.012-1.632-.986-3.247.078-4.843a220.949 220.949 0 0 0 3.477-3.516Z" opacity=".931"/><path d="M45.477 36.492c.768 0 1.041.364.82 1.094l-.664.664c-.828.266-1.18-.033-1.055-.898.24-.358.54-.644.898-.86Z" opacity=".892"/></g><defs><clipPath id="a"><path fill="#fff" d="M12 12h40v40H12z"/></clipPath></defs></svg>
